X: 1
T: Mom Bar
O: Armenia
S: Dick Atlee's collection, Pinewoods International Collection p.191
L: 1/16
M: 10/16
Q: 3/16 2/16 2/16 3/16
K: Am
[| "Am"z2c ~d2ea ~e2d | "Am"~e2d e2A2     z2z | "Am"ea~e- edea ~e2c | "Dm"~d2c ~d2cd "Am"~e3 ||
|| "Am"z2c ~d2ed ~e2d | "Am"~e2f edcB "G"~A2G | "F"cdB AGBc ~d2e | "G"~c2B AGcB "Am"A3 ||
|| "Am"~e2f eded ~e2d | "Am"~e2f edcB "G"~A2G | "F"cdB AGBc ~d2e | "G"~c2B AGcB "Am"A3 |]
